.local/share/icons/Gruvbox-Plus-Dark/mimetypes/scalable/x-office-calendar.svg

<svg width="256" height="256" viewBox="0 0 256 256" fill="none" xmlns="http://www.w3.org/2000/svg">
<g opacity="0.4" filter="url(#filter0_f)">
<path d="M55.0839 15.5636H155.608L216.009 75.7129L216.011 224.609C216.011 233.52 208.749 240.737 199.838 240.737H55.0838C46.1734 240.737 39 233.564 39 224.654V31.6474C39 22.737 46.1734 15.5636 55.0838 15.5636H55.0839Z" fill="#282828"/>
</g>
<path d="M55.0839 15H155.608L216.009 75.1493L216.011 224.045C216.011 232.956 208.749 240.174 199.838 240.174H55.0838C46.1734 240.174 39 233 39 224.09V31.0838C39 22.1734 46.1734 15 55.0838 15H55.0839Z" fill="#ebdbb2"/>
<path d="M78 140.244H121.671V129.777H90.9931C92.6172 123.732 97.3994 119.581 105.791 114.979C114.724 110.017 121.13 105.415 121.13 94.6776C121.13 84.0305 113.37 76 100.467 76C90.5419 76 82.331 81.4138 78.9925 89.6247L88.7373 94.046C90.8126 89.2638 94.5121 86.2862 100.557 86.2862C106.332 86.2862 110.212 89.7149 110.212 94.6776C110.212 100.182 105.43 103.34 100.377 105.956C88.4667 112.272 78 122.198 78 140.244Z" fill="url(#paint0_linear)"/>
<path d="M155.623 141.326C169.248 141.326 178 133.115 178 121.476C178 113.987 173.669 108.573 167.443 105.595C171.955 103.069 175.383 98.8281 175.383 92.6023C175.383 82.9477 167.714 76 155.623 76C143.532 76 135.953 82.9477 135.953 92.6023C135.953 98.9184 139.382 103.159 143.893 105.686C137.577 108.663 133.336 113.897 133.336 121.476C133.336 133.115 142.089 141.326 155.623 141.326ZM155.623 100.813C150.299 100.813 146.78 97.4747 146.78 93.2339C146.78 88.9029 150.299 85.9253 155.623 85.9253C160.947 85.9253 164.556 88.9029 164.556 93.2339C164.556 97.4747 160.947 100.813 155.623 100.813ZM155.623 131.311C148.946 131.311 144.344 127.16 144.344 121.205C144.344 115.43 148.946 110.919 155.623 110.919C162.21 110.919 167.082 115.43 167.082 121.205C167.082 127.16 162.21 131.311 155.623 131.311Z" fill="url(#paint1_linear)"/>
<path d="M199.838 240.174C208.749 240.174 216.011 232.956 216.011 224.046L216.01 186.5H39V224.09C39 233 46.1734 240.174 55.0838 240.174H199.838Z" fill="url(#paint2_linear)"/>
<path fill-rule="evenodd" clip-rule="evenodd" d="M155.608 20.3191H55.0839C49.1112 20.3191 44.3191 25.1111 44.3191 31.0838V224.09C44.3191 230.063 49.1111 234.855 55.0838 234.855H199.838C205.83 234.855 210.692 229.999 210.692 224.046V75.1493L155.608 20.3191ZM155.608 15H55.0839C46.1735 15 39 22.1734 39 31.0838V224.09C39 233 46.1734 240.174 55.0838 240.174H199.838C208.749 240.174 216.011 232.956 216.011 224.045L216.009 75.1493L155.608 15Z" fill="url(#paint3_linear)"/>
<path d="M72.0902 217.3C75.5402 217.3 78.2402 215.4 78.2402 212.025C78.2402 208.325 75.0902 207.225 72.5402 206.325C70.7152 205.725 69.1902 205.2 69.1902 203.925C69.1902 202.725 70.1152 202.05 71.6902 202.05C73.3402 202.05 74.3402 202.825 74.7902 203.85L77.4902 202.95C76.8652 200.8 74.9402 199.2 71.8902 199.2C68.2152 199.2 66.1402 201.35 66.1402 203.9C66.1402 207.225 68.9402 208.2 71.4402 209.05C73.4152 209.725 75.1902 210.35 75.1902 212.025C75.1902 213.625 73.9902 214.45 72.1902 214.45C70.3902 214.45 68.9902 213.35 68.2652 211.75L65.4902 212.775C66.4402 215.55 68.8652 217.3 72.0902 217.3ZM86.652 217.3C88.702 217.3 90.202 216.5 91.202 215.3L89.352 213.4C88.677 214.3 87.777 214.725 86.652 214.725C85.127 214.725 83.752 213.6 83.652 211.725H92.127C92.202 211.15 92.227 210.45 92.227 209.925C92.227 205.825 89.727 203.925 86.652 203.925C83.077 203.925 80.752 206.425 80.752 210.6C80.752 214.8 83.027 217.3 86.652 217.3ZM83.677 209.3C83.827 207.3 85.077 206.5 86.652 206.5C87.977 206.5 89.202 207.35 89.327 209.3H83.677ZM101.045 217.3C104.145 217.3 106.32 214.825 106.32 210.625C106.32 206.35 104.245 203.925 101.07 203.925C99.6947 203.925 98.7697 204.45 98.1447 205.2V204.225H95.2197V222.025L98.1447 220.675V215.975C98.7447 216.725 99.6697 217.3 101.045 217.3ZM100.62 214.5C99.4447 214.5 98.5947 213.9 98.1447 213.25V207.95C98.6697 207.175 99.4697 206.7 100.62 206.7C102.42 206.7 103.395 208.3 103.395 210.625C103.395 213.125 102.395 214.5 100.62 214.5ZM113.13 217.3C114.18 217.3 115.08 217.1 115.805 216.725L116.155 214.1C115.48 214.475 114.805 214.675 114.155 214.675C113.38 214.675 113.08 214.175 113.08 213.45V206.775H116.03V204.225H113.08V198.95L110.155 200.35V204.225H108.255V206.775H110.155V214.025C110.155 216.05 111.03 217.3 113.13 217.3ZM124.103 217.3C126.153 217.3 127.653 216.5 128.653 215.3L126.803 213.4C126.128 214.3 125.228 214.725 124.103 214.725C122.578 214.725 121.203 213.6 121.103 211.725H129.578C129.653 211.15 129.678 210.45 129.678 209.925C129.678 205.825 127.178 203.925 124.103 203.925C120.528 203.925 118.203 206.425 118.203 210.6C118.203 214.8 120.478 217.3 124.103 217.3ZM121.128 209.3C121.278 207.3 122.528 206.5 124.103 206.5C125.428 206.5 126.653 207.35 126.778 209.3H121.128ZM147.671 217H150.596V208.85C150.596 205.25 148.571 203.925 145.921 203.925C144.271 203.925 142.921 204.475 142.071 205.725C141.396 204.5 140.246 203.925 138.721 203.925C137.396 203.925 136.321 204.425 135.596 205.4V204.225H132.671V217H135.596V209.725C135.596 207.675 136.546 206.7 137.996 206.7C139.496 206.7 140.171 207.675 140.171 209.675V217H143.096V209.725C143.096 207.675 144.021 206.7 145.496 206.7C146.996 206.7 147.671 207.675 147.671 209.675V217ZM159.979 217.3C163.279 217.3 165.329 214.925 165.329 210.6C165.329 206.425 163.129 203.925 160.029 203.925C158.704 203.925 157.779 204.45 157.154 205.175V198.95L154.229 200.275V217H157.154V216.025C157.779 216.8 158.629 217.3 159.979 217.3ZM159.629 214.5C158.504 214.5 157.679 214.075 157.154 213.275V207.95C157.529 207.375 158.404 206.7 159.629 206.7C161.404 206.7 162.404 208.075 162.404 210.6C162.404 213 161.454 214.5 159.629 214.5ZM173.737 217.3C175.787 217.3 177.287 216.5 178.287 215.3L176.437 213.4C175.762 214.3 174.862 214.725 173.737 214.725C172.212 214.725 170.837 213.6 170.737 211.725H179.212C179.287 211.15 179.312 210.45 179.312 209.925C179.312 205.825 176.812 203.925 173.737 203.925C170.162 203.925 167.837 206.425 167.837 210.6C167.837 214.8 170.112 217.3 173.737 217.3ZM170.762 209.3C170.912 207.3 172.162 206.5 173.737 206.5C175.062 206.5 176.287 207.35 176.412 209.3H170.762ZM182.305 217H185.23V209.85C185.23 207.425 186.505 206.8 187.63 206.8C188.605 206.8 189.28 207.1 189.805 207.475L190.23 204.8C189.58 204.25 188.805 203.925 187.855 203.925C186.58 203.925 185.73 204.5 185.23 205.55V204.225H182.305V217Z" fill="#ebdbb2"/>
<path opacity="0.25" d="M155.608 17V61.2306C155.608 70.141 162.867 77.1605 171.777 77.1605L216.009 77.1493V75.1493L155.608 17Z" fill="#282828"/>
<path d="M155.608 15V59.2306C155.608 68.141 162.867 75.1605 171.777 75.1605L216.009 75.1493L155.608 15Z" fill="url(#paint4_linear)"/>
<rect x="39" y="96" width="10" height="35" fill="url(#paint5_linear)"/>
<rect x="206" y="96" width="10" height="35" fill="url(#paint6_linear)"/>
<defs>
<filter id="filter0_f" x="23.8778" y="0.441412" width="207.255" height="255.418" filterUnits="userSpaceOnUse" color-interpolation-filters="sRGB">
<feFlood flood-opacity="0" result="BackgroundImageFix"/>
<feBlend mode="normal" in="SourceGraphic" in2="BackgroundImageFix" result="shape"/>
<feGaussianBlur stdDeviation="7.5611" result="effect1_foregroundBlur"/>
</filter>
<linearGradient id="paint0_linear" x1="78" y1="76" x2="78" y2="141.326" gradientUnits="userSpaceOnUse">
<stop offset="1e-07" stop-color="#504945"/>
<stop offset="1" stop-color="#3c3836"/>
</linearGradient>
<linearGradient id="paint1_linear" x1="78" y1="76" x2="78" y2="141.326" gradientUnits="userSpaceOnUse">
<stop offset="1e-07" stop-color="#504945"/>
<stop offset="1" stop-color="#3c3836"/>
</linearGradient>
<linearGradient id="paint2_linear" x1="126.411" y1="186.479" x2="126.452" y2="240.351" gradientUnits="userSpaceOnUse">
<stop stop-color="#8ec07c"/>
<stop offset="1" stop-color="#689d6a"/>
</linearGradient>
<linearGradient id="paint3_linear" x1="125" y1="188" x2="125.576" y2="239.999" gradientUnits="userSpaceOnUse">
<stop stop-color="#8ec07c"/>
<stop offset="1" stop-color="#689d6a"/>
</linearGradient>
<linearGradient id="paint4_linear" x1="185.435" y1="14.977" x2="185.585" y2="75.3591" gradientUnits="userSpaceOnUse">
<stop stop-color="#8ec07c"/>
<stop offset="1" stop-color="#689d6a"/>
</linearGradient>
<linearGradient id="paint5_linear" x1="39" y1="96" x2="39" y2="131" gradientUnits="userSpaceOnUse">
<stop offset="1e-07" stop-color="#fabd2f"/>
<stop offset="1" stop-color="#b57614"/>
</linearGradient>
<linearGradient id="paint6_linear" x1="206" y1="96" x2="206" y2="131" gradientUnits="userSpaceOnUse">
<stop offset="1e-07" stop-color="#fabd2f"/>
<stop offset="1" stop-color="#b57614"/>
</linearGradient>
</defs>
</svg>

<svg width="256" height="256" fill="none" version="1.1" viewBox="0 0 256 256" xmlns="http://www.w3.org/2000/svg">
  <path d="m55.08 15h100.5l60.4 60.15 2e-3 148.9c0 8.911-7.262 16.13-16.17 16.13h-144.8c-8.91 0-16.08-7.174-16.08-16.08v-193c0-8.91 7.173-16.08 16.08-16.08h1e-4z" fill="#ebdbb2"/>
  <path d="m78 140.2h43.67v-10.47h-30.68c1.624-6.045 6.406-10.2 14.8-14.8 8.933-4.962 15.34-9.564 15.34-20.3 0-10.65-7.76-18.68-20.66-18.68-9.925 0-18.14 5.414-21.47 13.62l9.745 4.421c2.075-4.782 5.775-7.76 11.82-7.76 5.775 0 9.655 3.429 9.655 8.391 0 5.504-4.782 8.662-9.835 11.28-11.91 6.316-22.38 16.24-22.38 34.29z" fill="url(#paint0_linear)"/>
  <path d="m155.6 141.3c13.62 0 22.38-8.211 22.38-19.85 0-7.489-4.331-12.9-10.56-15.88 4.512-2.526 7.94-6.767 7.94-12.99 0-9.655-7.669-16.6-19.76-16.6s-19.67 6.948-19.67 16.6c0 6.316 3.429 10.56 7.94 13.08-6.316 2.977-10.56 8.211-10.56 15.79 0 11.64 8.753 19.85 22.29 19.85zm0-40.51c-5.324 0-8.843-3.338-8.843-7.579 0-4.331 3.519-7.309 8.843-7.309s8.933 2.978 8.933 7.309c0 4.241-3.609 7.579-8.933 7.579zm0 30.5c-6.677 0-11.28-4.151-11.28-10.11 0-5.775 4.602-10.29 11.28-10.29 6.587 0 11.46 4.511 11.46 10.29 0 5.955-4.872 10.11-11.46 10.11z" fill="url(#paint0_linear)"/>
  <path d="m199.8 240.2c8.911 0 16.17-7.218 16.17-16.13l-1e-3 -37.55h-177v37.59c0 8.91 7.173 16.08 16.08 16.08h144.8z" fill="url(#paint2_linear)"/>
  <path d="m155.6 20.32h-100.5c-5.973 0-10.76 4.792-10.76 10.76v193c0 5.973 4.792 10.76 10.76 10.76h144.8c5.992 0 10.85-4.856 10.85-10.81v-148.9l-55.08-54.83zm0-5.319h-100.5c-8.91 0-16.08 7.173-16.08 16.08v193c0 8.91 7.173 16.08 16.08 16.08h144.8c8.911 0 16.17-7.218 16.17-16.13l-2e-3 -148.9-60.4-60.15z" clip-rule="evenodd" fill="url(#paint3_linear)" fill-rule="evenodd"/>
  <path d="m72.09 217.3c3.45 0 6.15-1.9 6.15-5.275 0-3.7-3.15-4.8-5.7-5.7-1.825-0.6-3.35-1.125-3.35-2.4 0-1.2 0.925-1.875 2.5-1.875 1.65 0 2.65 0.775 3.1 1.8l2.7-0.9c-0.625-2.15-2.55-3.75-5.6-3.75-3.675 0-5.75 2.15-5.75 4.7 0 3.325 2.8 4.3 5.3 5.15 1.975 0.675 3.75 1.3 3.75 2.975 0 1.6-1.2 2.425-3 2.425s-3.2-1.1-3.925-2.7l-2.775 1.025c0.95 2.775 3.375 4.525 6.6 4.525zm14.56 0c2.05 0 3.55-0.8 4.55-2l-1.85-1.9c-0.675 0.9-1.575 1.325-2.7 1.325-1.525 0-2.9-1.125-3-3h8.475c0.075-0.575 0.1-1.275 0.1-1.8 0-4.1-2.5-6-5.575-6-3.575 0-5.9 2.5-5.9 6.675 0 4.2 2.275 6.7 5.9 6.7zm-2.975-8c0.15-2 1.4-2.8 2.975-2.8 1.325 0 2.55 0.85 2.675 2.8h-5.65zm17.37 8c3.1 0 5.275-2.475 5.275-6.675 0-4.275-2.075-6.7-5.25-6.7-1.375 0-2.3 0.525-2.925 1.275v-0.975h-2.925v17.8l2.925-1.35v-4.7c0.6 0.75 1.525 1.325 2.9 1.325zm-0.425-2.8c-1.175 0-2.025-0.6-2.475-1.25v-5.3c0.525-0.775 1.325-1.25 2.475-1.25 1.8 0 2.775 1.6 2.775 3.925 0 2.5-1 3.875-2.775 3.875zm12.51 2.8c1.05 0 1.95-0.2 2.675-0.575l0.35-2.625c-0.675 0.375-1.35 0.575-2 0.575-0.775 0-1.075-0.5-1.075-1.225v-6.675h2.95v-2.55h-2.95v-5.275l-2.925 1.4v3.875h-1.9v2.55h1.9v7.25c0 2.025 0.875 3.275 2.975 3.275zm10.97 0c2.05 0 3.55-0.8 4.55-2l-1.85-1.9c-0.675 0.9-1.575 1.325-2.7 1.325-1.525 0-2.9-1.125-3-3h8.475c0.075-0.575 0.1-1.275 0.1-1.8 0-4.1-2.5-6-5.575-6-3.575 0-5.9 2.5-5.9 6.675 0 4.2 2.275 6.7 5.9 6.7zm-2.975-8c0.15-2 1.4-2.8 2.975-2.8 1.325 0 2.55 0.85 2.675 2.8h-5.65zm26.54 7.7h2.925v-8.15c0-3.6-2.025-4.925-4.675-4.925-1.65 0-3 0.55-3.85 1.8-0.675-1.225-1.825-1.8-3.35-1.8-1.325 0-2.4 0.5-3.125 1.475v-1.175h-2.925v12.78h2.925v-7.275c0-2.05 0.95-3.025 2.4-3.025 1.5 0 2.175 0.975 2.175 2.975v7.325h2.925v-7.275c0-2.05 0.925-3.025 2.4-3.025 1.5 0 2.175 0.975 2.175 2.975v7.325zm12.31 0.3c3.3 0 5.35-2.375 5.35-6.7 0-4.175-2.2-6.675-5.3-6.675-1.325 0-2.25 0.525-2.875 1.25v-6.225l-2.925 1.325v16.72h2.925v-0.975c0.625 0.775 1.475 1.275 2.825 1.275zm-0.35-2.8c-1.125 0-1.95-0.425-2.475-1.225v-5.325c0.375-0.575 1.25-1.25 2.475-1.25 1.775 0 2.775 1.375 2.775 3.9 0 2.4-0.95 3.9-2.775 3.9zm14.11 2.8c2.05 0 3.55-0.8 4.55-2l-1.85-1.9c-0.675 0.9-1.575 1.325-2.7 1.325-1.525 0-2.9-1.125-3-3h8.475c0.075-0.575 0.1-1.275 0.1-1.8 0-4.1-2.5-6-5.575-6-3.575 0-5.9 2.5-5.9 6.675 0 4.2 2.275 6.7 5.9 6.7zm-2.975-8c0.15-2 1.4-2.8 2.975-2.8 1.325 0 2.55 0.85 2.675 2.8h-5.65zm11.54 7.7h2.925v-7.15c0-2.425 1.275-3.05 2.4-3.05 0.975 0 1.65 0.3 2.175 0.675l0.425-2.675c-0.65-0.55-1.425-0.875-2.375-0.875-1.275 0-2.125 0.575-2.625 1.625v-1.325h-2.925v12.78z" fill="#ebdbb2"/>
  <path d="m155.6 17v44.23c0 8.91 7.259 15.93 16.17 15.93l44.23-0.0112v-2l-60.4-58.15z" fill="#282828" opacity=".25"/>
  <path d="m155.6 15v44.23c0 8.91 7.259 15.93 16.17 15.93l44.23-0.0112-60.4-60.15z" fill="url(#paint4_linear)"/>
  <rect x="39" y="96" width="10" height="35" fill="url(#paint5_linear)"/>
  <rect x="206" y="96" width="10" height="35" fill="url(#paint6_linear)"/>
  <defs>
    <linearGradient id="paint0_linear" x1="78" x2="78" y1="76" y2="141.3" gradientUnits="userSpaceOnUse">
      <stop stop-color="#504945" offset="1e-7"/>
      <stop stop-color="#3c3836" offset="1"/>
    </linearGradient>
    <linearGradient id="paint2_linear" x1="126.4" x2="126.5" y1="186.5" y2="240.4" gradientUnits="userSpaceOnUse">
      <stop stop-color="#8ec07c" offset="0"/>
      <stop stop-color="#689d6a" offset="1"/>
    </linearGradient>
    <linearGradient id="paint3_linear" x1="125" x2="125.6" y1="188" y2="240" gradientUnits="userSpaceOnUse">
      <stop stop-color="#8ec07c" offset="0"/>
      <stop stop-color="#689d6a" offset="1"/>
    </linearGradient>
    <linearGradient id="paint4_linear" x1="185.4" x2="185.6" y1="14.98" y2="75.36" gradientUnits="userSpaceOnUse">
      <stop stop-color="#8ec07c" offset="0"/>
      <stop stop-color="#689d6a" offset="1"/>
    </linearGradient>
    <linearGradient id="paint5_linear" x1="39" x2="39" y1="96" y2="131" gradientUnits="userSpaceOnUse">
      <stop stop-color="#fabd2f" offset="1e-7"/>
      <stop stop-color="#b57614" offset="1"/>
    </linearGradient>
    <linearGradient id="paint6_linear" x1="206" x2="206" y1="96" y2="131" gradientUnits="userSpaceOnUse">
      <stop stop-color="#fabd2f" offset="1e-7"/>
      <stop stop-color="#b57614" offset="1"/>
    </linearGradient>
  </defs>
</svg>
